static/assets/images/tokens/pyusd.svg

<svg width="256" height="256" viewBox="0 0 256 256" fill="none" xmlns="http://www.w3.org/2000/svg">
<path d="M128 256C161.948 256 194.505 242.514 218.51 218.51C242.514 194.505 256 161.948 256 128C256 94.0523 242.514 61.495 218.51 37.4903C194.505 13.4857 161.948 0 128 0C94.0523 0 61.495 13.4857 37.4903 37.4903C13.4857 61.495 0 94.0523 0 128C0 161.948 13.4857 194.505 37.4903 218.51C61.495 242.514 94.0523 256 128 256Z" fill="#0071F3"/>
<path d="M152.587 47.0023H104.241C101.548 46.9479 98.9217 47.8422 96.8185 49.5296C94.7152 51.217 93.2686 53.5906 92.7305 56.2373L90.4283 78.1702H73.162C71.1262 78.3164 69.2217 79.2318 67.8329 80.7317C66.4442 82.2315 65.6747 84.204 65.6799 86.2507C65.6799 90.8682 69.1332 94.3313 73.162 94.3313H86.975L84.6729 109.915V111.07H68.5576C66.5167 111.064 64.5498 111.836 63.0542 113.229C61.5586 114.621 60.6458 116.531 60.5 118.573C60.5 123.19 63.9533 126.653 68.5576 126.653H82.3707L74.8886 173.982L72.0109 190.144L70.8598 198.224C70.6094 199.879 70.7207 201.568 71.1859 203.175C71.6511 204.782 72.4592 206.268 73.5542 207.531C74.6491 208.794 76.0047 209.803 77.5271 210.488C79.0494 211.173 80.7021 211.518 82.3707 211.499H118.63C121.306 211.395 123.863 210.358 125.859 208.567C127.855 206.776 129.166 204.343 129.565 201.687L136.472 158.976H153.738C184.242 158.976 209.566 133.58 208.99 102.412C208.415 71.8212 183.091 47.5795 152.587 47.5795V47.0023ZM103.09 94.3313H152.587C153.695 94.3284 154.792 94.555 155.81 94.9967C156.827 95.4383 157.742 96.0857 158.498 96.8983C159.254 97.7109 159.835 98.6712 160.205 99.7192C160.574 100.767 160.724 101.88 160.645 102.989C160.645 105.132 159.796 107.187 158.285 108.703C156.774 110.218 154.724 111.07 152.587 111.07H100.788L103.09 94.3313ZM132.443 142.237C129.75 142.183 127.123 143.077 125.02 144.765C122.917 146.452 121.47 148.826 120.932 151.472L114.601 195.338H87.5506L97.9104 126.653H152.587C155.686 126.653 158.754 126.041 161.617 124.852C164.48 123.663 167.082 121.92 169.273 119.722C171.464 117.525 173.202 114.916 174.388 112.045C175.574 109.174 176.184 106.097 176.184 102.989C176.184 89.7138 165.825 78.7474 152.587 78.7474H105.968L108.27 63.1634H153.738C175.609 63.1634 194.026 81.6333 193.451 103.566C193.005 113.979 188.565 123.816 181.057 131.022C173.549 138.229 163.555 142.247 153.163 142.237H132.443Z" fill="white"/>
</svg>

<svg xmlns="http://www.w3.org/2000/svg" fill="none" viewBox="0 0 256 256"><path fill="#0071F3" d="M128 256a128 128 0 0 0 90.51-37.49 128.003 128.003 0 0 0 0-181.02A128.001 128.001 0 1 0 128 256"/><path fill="#fff" d="M152.587 47.002h-48.346c-2.693-.054-5.32.84-7.422 2.528a11.55 11.55 0 0 0-4.088 6.707L90.428 78.17H73.162a8.05 8.05 0 0 0-5.33 2.562 8.1 8.1 0 0 0-2.152 5.519c0 4.617 3.453 8.08 7.482 8.08h13.813l-2.302 15.584v1.155H68.558a8.04 8.04 0 0 0-5.504 2.159 8.1 8.1 0 0 0-2.554 5.344c0 4.617 3.453 8.08 8.058 8.08H82.37l-7.482 47.329-2.878 16.162-1.151 8.08a11.58 11.58 0 0 0 2.694 9.307 11.5 11.5 0 0 0 8.817 3.968h36.259a11.5 11.5 0 0 0 7.229-2.932 11.55 11.55 0 0 0 3.706-6.88l6.907-42.711h17.266c30.504 0 55.828-25.396 55.252-56.564-.575-30.59-25.899-54.832-56.403-54.832zm-49.497 47.33h49.497a8.04 8.04 0 0 1 5.911 2.566 8.1 8.1 0 0 1 2.147 6.091 8.1 8.1 0 0 1-2.36 5.714 8.05 8.05 0 0 1-5.698 2.367h-51.799zm29.353 47.905a11.5 11.5 0 0 0-7.423 2.528 11.55 11.55 0 0 0-4.088 6.707l-6.331 43.866h-27.05l10.36-68.685h54.676c3.099 0 6.167-.612 9.03-1.801a23.6 23.6 0 0 0 7.656-5.13 23.7 23.7 0 0 0 5.115-7.677 23.7 23.7 0 0 0 1.796-9.056c0-13.275-10.359-24.242-23.597-24.242h-46.619l2.302-15.584h45.468c21.871 0 40.288 18.47 39.713 40.403a40.45 40.45 0 0 1-12.394 27.456 40.22 40.22 0 0 1-27.894 11.215z"/></svg>
